X: 1054
T: Jingle Bells
B: christmas songs
M:2/4
L:1/8
Q: 1/4=100
K:A
V:1 
"A"Ec BA \
| E3 E/-E/ \
| Ec BA \
| "D"F4 \
| "Bm"Fd cB \
| "E7"G3 e \
| fe dB \
| "A"c4 |
| "A"Ec BA \
| E3 E/-E/ \
| Ec BA \
| "D"F3 F \
| "Bm"Fd cB \
| "A"ee ee \
| "E7"fe dB \
| "A"A2 z2 |
|: "A"cc c2 \
| cc c2 \
| ce A>B \
| "A7"c4 \
| "D"dd d>d \
| "A"dc cc/c/ \
|1 "B7"cB Bc \
| "E7"B2 e2 \
:|2 "E7"ee dB \
| "A"A4 |]
W: Dashing through the snow
W: In a one-horse open sleigh
W: O'er the fields we go
W: Laughing all the way
W: Bells on bobtails ring
W: Making spirits bright
W: What fun it is to ride and sing
W: A sleighing song tonight, oh!
W: Jingle bells, jingle bells
W: Jingle all the way
W: Oh, what fun it is to ride
W: In a one-horse open sleigh, hey!
W: Jingle bells, jingle bells
W: Jingle all the way
W: Oh what fun it is to ride
W: In a one-horse open sleigh
W: Now the ground is white
W: Go it while you're young
W: Take the girls tonight
W: Sing this sleighing song
W: Get a bobtailed bay
W: Two forty for his speed
W: And hitch him to an open sleigh
W: And you will take the lead
W: Oh, jingle bells, jingle bells
W: Jingle all the way
W: Oh, what fun it is to ride
W: In a one-horse open sleigh, hey!
W: Jingle bells, jingle bells
W: Jingle all the way
W: Oh, what fun it is to ride
W: In a one-horse open sleigh
W: Oh, what fun it is to ride
W: In one horse open sleigh!
% abcbook-tune_id 627df8de85c08ad8c26a707c


% abcbook-boost 0
% abcbook-tablature 
% abcbook-transpose -2
% abcbook-lastupdated 1653910509234
% abcbook-soundfonts 
% abcbook-repeats 1
%%MIDI transpose            -2
% Titles One title
% Transcriptions Only 1 transcription
% Mode major
% Key A
% Time_signature 2/4
% Has_accompaniment_chords Has chords

